X:1
T:Title
%%score ( 1 2 ) ( 3 4 )
L:1/8
Q:1/4=100
M:4/4
K:G
V:1 treble nm="Midi_20"
V:2 treble 
V:3 bass nm="Midi_20"
V:4 bass 
V:1
"^Forward (11 11. 11 11. 11 11)""^Henry Smart\n(1813-1879)""^Henry Alford\n(1810-71)""^'Forward!' be our watchword" d2 d2 B2 A2 | %1
 G4 D4 | G2 G2 A2 D2 | B8 || d2 d2 B2 A2 | G4 F4 | E2 G2 F2 E2 | D8 || A2 A2 B2 G2 | c4 A4 | %10
 B2 B2 ^c2 F2 | d8 || e2 d2 c2 B2 | A4 E4 | c2 B2 A2 G2 | d8 || d2 d2 B2 A2 | G4 D4 | G2 c2 d2 G2 | %19
 e8 || e2 d2 c2 d2 | (B2 F2) (G2 A2) | B2 G2 c2 A2 | G8 |] %24
V:2
 G2 G2 G2 D2 | D4 D4 | B,2 D2 E2 D2 | D8 || D2 F2 D2 C2 | (B,2 ^C2) D4 | D2 D2 D2 ^C2 | D8 || %8
w: 'For- ward!' be our|watch- word,|steps and voi- ces|joined;|Seek the things be-|fore * us,|not a look be-|hind;|
w: Glo- ries up- on|glo- ries|hath our God pre-|pared,|By the souls that|love * Him|one day to be|shared;|
w: Far o'er yon ho-|ri- zon|rise the ci- ty|towers,|Where our God a-|bid\- * eth;|that fair home is|ours:|
w: To the Fa- ther's|glo- ry|loud- est an- thems|raise,|To the Son and|Spi\- * rit|ech- o songs of|praise;|
 D2 D2 D2 E2 | E4 D4 | D2 D2 G2 F2 | F8 || E2 E2 E2 E2 | E4 E4 | E2 E2 E2 E2 | F8 || F2 F2 D2 C2 | %17
w: Burns the fie- ry|pil- lar|at our ar- my's|head;|Who shall dream of|shrink- ing,|by Je- ho- vah|led?|For- ward through the|
w: Eye hath not be-|held them,|ear hath ne- ver|heard,|Nor of these hath|ut- tered|thought or speech a|word.|For- ward, march- ing|
w: Flash the streets with|jas- per,|shine the gates with|gold,|Flows the gladden- ing|ri- ver,|shedd- ing joys un-|told.|Thi- ther, on- ward|
w: To the Lord Je-|ho- vah,|bless- ed Three in|One,|Be by men and|an- gels|end- less hon- our|done.|Weak are earth- ly|
 B,4 B,4 | C2 G2 =F2 F2 | E8 || G2 G2 G2 D2 | D4 G4 | G2 G2 F2 F2 | G8 |] %24
w: de- sert,|through the toil and|fight;|||||
w: for- ward,|where the heaven is|bright,|||||
w: thi- ther,|in Je- ho- vah's|might;|||||
w: prai- ses,|dull the songs of|night;|||||
V:3
 B,2 B,2 D2 C2 | B,4 A,4 | G,2 G,2 G,2 F,2 | G,8 || A,2 A,2 B,2 F,2 | G,4 A,4 | B,2 B,2 A,2 G,2 | %7
 F,8 || F,2 F,2 G,2 B,2 | A,4 F,4 | B,2 B,2 B,2 ^A,2 | B,8 || B,2 ^G,2 A,2 G,2 | A,4 ^G,4 | %14
 A,2 D2 C2 B,2 | A,8 || B,2 B,2 F,2 F,2 | G,4 G,4 | G,2 G,2 A,2 B,2 | C8 || C2 B,2 C2 A,2 | %21
 (B,2 C2) (D2 E2) | D2 B,2 A,2 C2 | B,8 |] %24
V:4
 G,2 G,2 G,2 G,2 | G,4 F,4 | E,2 B,,2 C,2 D,2 | G,,8 || F,2 D,2 G,2 D,2 | E,4 F,4 | %6
w: ||||||
w: ||||||
w: ||||||
w: ||||||
 G,2 E,2 A,2 A,,2 | D,8 || D,2 =C,2 B,,2 E,2 | A,,4 D,4 | G,2 F,2 E,2 F,2 | B,,8 || %12
w: ||||||
w: ||||||
w: ||||||
w: ||||||
 ^G,2 E,2 A,2 E,D, | C,4 E,4 | A,,2 B,,2 C,2 C,2 | D,8 || B,,2 B,,2 D,2 D,2 | E,4 =F,4 | %18
w: * * * of *||||||
w: * * * hath *||||||
w: * * * ing *||||||
w: * * * and *||||||
 E,2 E,2 D,2 G,2 | C,8 || C,2 D,2 E,2 F,2 | (G,2 A,2) (B,2 C2) | D2 D,2 D,2 D,2 | G,,8 |] %24
w: ||Jor- dan flows be-|fore * us, *|Zi- on beams with|light.|
w: ||Till the veil be|lift\- * ed, *|till our faith be|sight.|
w: ||Pil- grims to your|coun\- * try, *|for- ward in- to|light!|
w: ||For- ward in- to|tri\- * umph, *|for- ward in- to|light!|

